Newaita-dark/apps/48/akregator.svg

<svg height="48pt" viewBox="0 0 48 48" width="48pt" xmlns="http://www.w3.org/2000/svg" xmlns:xlink="http://www.w3.org/1999/xlink"><linearGradient id="a" gradientUnits="userSpaceOnUse" x1="23.81478" x2="23.81478" y1="42.0509045" y2="44.03547050005"><stop offset="0" stop-opacity=".27451"/><stop offset="1" stop-opacity="0"/></linearGradient><linearGradient id="b"><stop offset="0" stop-opacity=".313726"/><stop offset=".222222" stop-opacity=".27451"/><stop offset="1" stop-opacity="0"/></linearGradient><radialGradient id="c" cx="450.908936" cy="189.579361" gradientTransform="matrix(.00000026 -.117199 -.210958 -.00000015 79.684395 95.392999)" gradientUnits="userSpaceOnUse" r="21.166656" xlink:href="#b"/><radialGradient id="d" cx="450.908936" cy="189.579361" gradientTransform="matrix(-.00000026 .117199 .210958 .00000015 -31.80678 -11.291218)" gradientUnits="userSpaceOnUse" r="21.166656" xlink:href="#b"/><radialGradient id="e" cx="450.908936" cy="189.579361" gradientTransform="matrix(-.00000026 -.117199 .210958 -.00000015 -31.80678 95.392999)" gradientUnits="userSpaceOnUse" r="21.166656" xlink:href="#b"/><radialGradient id="f" cx="450.908936" cy="189.579361" gradientTransform="matrix(.00000026 .117199 -.210958 .00000015 79.684393 -11.291219)" gradientUnits="userSpaceOnUse" r="21.166656" xlink:href="#b"/><linearGradient id="g" gradientUnits="userSpaceOnUse" x1="23.814786" x2="23.814786" y1="42.0509015" y2="4.34415649995"><stop offset="0" stop-color="#ff7043"/><stop offset="1" stop-color="#ff8a65"/></linearGradient><linearGradient id="h" gradientUnits="userSpaceOnUse" x1="25.799384" x2="25.799384" y1="42.05096580616" y2="4.34417306195"><stop offset="0" stop-color="#bdbdbd"/><stop offset="1" stop-color="#e0e0e0"/></linearGradient><path d="m7.691406 42.050781h32.496094v1.984375h-32.496094zm0 0" fill="url(#a)"/><path d="m40.1875 42.050781h3.96875v-1.984375h-3.96875zm0 0" fill="url(#c)"/><path d="m7.691406 42.050781h-3.96875v1.984375h3.96875zm0 0" fill="url(#d)"/><path d="m7.691406 42.050781h-3.96875v-1.984375h3.96875zm0 0" fill="url(#e)"/><path d="m40.1875 42.050781h3.96875v1.984375h-3.96875zm0 0" fill="url(#f)"/><path d="m5.457031 4.34375h36.714844c.820313 0 1.488281.667969 1.488281 1.488281v34.730469c0 .820312-.667968 1.488281-1.488281 1.488281h-36.714844c-.820312 0-1.488281-.667969-1.488281-1.488281v-34.730469c0-.820312.667969-1.488281 1.488281-1.488281zm0 0" fill="url(#g)"/><path d="m5.457031 4.34375c-.824219 0-1.488281.664062-1.488281 1.488281v.25c0-.824219.664062-1.488281 1.488281-1.488281h36.714844c.824219 0 1.488281.664062 1.488281 1.488281v-.25c0-.824219-.664062-1.488281-1.488281-1.488281zm0 0" fill="#fff" fill-opacity=".392157"/><path d="m5.457031 42.050781c-.824219 0-1.488281-.664062-1.488281-1.488281v-.25c0 .824219.664062 1.488281 1.488281 1.488281h36.714844c.824219 0 1.488281-.664062 1.488281-1.488281v.25c0 .824219-.664062 1.488281-1.488281 1.488281zm0 0" fill="#030303" fill-opacity=".235294"/><path d="m5.457031 4.203125c-.898437 0-1.628906.730469-1.628906 1.628906v34.730469c0 .898438.730469 1.628906 1.628906 1.628906h36.714844c.898437 0 1.628906-.730468 1.628906-1.628906v-34.730469c0-.898437-.730469-1.628906-1.628906-1.628906zm0 .28125h36.714844c.75 0 1.347656.597656 1.347656 1.347656v34.730469c0 .75-.597656 1.347656-1.347656 1.347656h-36.714844c-.75 0-1.347656-.597656-1.347656-1.347656v-34.730469c0-.75.597656-1.347656 1.347656-1.347656zm0 0" fill="#212121"/><path d="m7.9375 10.296875c-.550781 0-.992188.445313-.992188.992187v1.984376c0 .550781.441407.992187.992188.992187 13.195312 0 23.816406 10.621094 23.816406 23.816406 0 .550781.441406.992188.992188.992188h1.984375c.550781 0 .992187-.441407.992187-.992188 0-15.390625-12.390625-27.785156-27.785156-27.785156zm0 7.9375c-.550781 0-.992188.445313-.992188.992187v1.988282c0 .546875.441407.992187.992188.992187 8.796875 0 15.878906 7.078125 15.878906 15.875 0 .550781.441406.992188.992188.992188h1.984375c.546875 0 .992187-.441407.992187-.992188 0-10.996093-8.851562-19.847656-19.847656-19.847656zm4.464844 9.925781c-3.023438 0-5.457032 2.433594-5.457032 5.457032 0 3.023437 2.433594 5.457031 5.457032 5.457031 3.023437 0 5.457031-2.433594 5.457031-5.457031 0-3.023438-2.433594-5.457032-5.457031-5.457032zm0 0" fill="url(#h)"/><path d="m7.9375 10.296875c-.550781 0-.992188.445313-.992188.992187v.746094c0-.550781.441407-.992187.992188-.992187 15.183594 0 27.449219 12.058593 27.777344 27.160156.003906-.039063.007812-.082031.007812-.121094 0-15.390625-12.390625-27.785156-27.785156-27.785156zm0 7.9375c-.550781 0-.992188.445313-.992188.992187v.746094c0-.550781.441407-.992187.992188-.992187 10.792969 0 19.519531 8.527343 19.835938 19.238281.007812-.046875.011718-.089844.011718-.136719 0-10.996093-8.851562-19.847656-19.847656-19.847656zm4.464844 9.925781c-3.023438 0-5.457032 2.433594-5.457032 5.457032 0 .125.003907.25.011719.371093.191407-2.847656 2.546875-5.085937 5.445313-5.085937 2.898437 0 5.257812 2.238281 5.445312 5.085937.007813-.121093.011719-.246093.011719-.371093 0-3.023438-2.433594-5.457032-5.457031-5.457032zm0 0" fill="#fff"/><path d="m6.945312 13.273438v.992187c0 .550781.441407.992187.992188.992187 13.195312 0 23.816406 10.621094 23.816406 23.816407 0 .550781.441406.992187.992188.992187h1.984375c.550781 0 .992187-.441406.992187-.992187 0-.277344-.003906-.558594-.011718-.835938-.078126.476563-.484376.835938-.980469.835938h-1.984375c-.550782 0-.992188-.441407-.992188-.992188 0-13.195312-10.621094-23.816406-23.816406-23.816406-.550781 0-.992188-.441406-.992188-.992187zm0 7.941406v.992187c0 .546875.441407.992188.992188.992188 8.796875 0 15.878906 7.078125 15.878906 15.875 0 .550781.441406.992187.992188.992187h1.984375c.546875 0 .992187-.441406.992187-.992187 0-.273438-.007812-.542969-.019531-.8125-.082031.464843-.484375.8125-.972656.8125h-1.984375c-.550782 0-.992188-.441407-.992188-.992188 0-8.796875-7.082031-15.875-15.878906-15.875-.550781 0-.992188-.445312-.992188-.992187zm.023438 12.898437c-.015625.164063-.023438.328125-.023438.496094 0 3.023437 2.433594 5.457031 5.457032 5.457031 3.023437 0 5.457031-2.433594 5.457031-5.457031 0-.167969-.007813-.332031-.019531-.496094-.25 2.789063-2.582032 4.960938-5.4375 4.960938-2.855469 0-5.183594-2.171875-5.433594-4.960938zm0 0" fill-opacity=".235294"/><path d="m319.969461 415.078494c-22.202605 0-39.996182 17.951043-39.996182 39.996183v79.992365c0 22.202605 17.793577 39.996183 39.996182 39.996183 531.917737 0 960.065849 428.148112 960.065849 960.065849 0 22.202605 17.793578 39.996182 39.996183 39.996182h79.992365c22.202606 0 39.996183-17.793577 39.996183-39.996182 0-620.413227-499.479887-1120.05058-1120.05058-1120.05058zm0 319.969461c-22.202605 0-39.996182 17.951043-39.996182 39.996183v80.149831c0 22.04514 17.793577 39.996182 39.996182 39.996182 354.611824 0 640.096388 285.327099 640.096388 639.938923 0 22.202605 17.793577 39.996182 39.996183 39.996182h79.992365c22.04514 0 39.996183-17.793577 39.996183-39.996182 0-443.26478-356.816338-800.081119-800.081119-800.081119zm179.982822 400.119292c-121.878131 0-219.979004 98.100873-219.979004 219.979005 0 121.878131 98.100873 219.979004 219.979004 219.979004 121.878132 0 219.979005-98.100873 219.979005-219.979004 0-121.878132-98.100873-219.979005-219.979005-219.979005zm0 0" fill="none" stroke="#212121" stroke-linecap="round" stroke-linejoin="round" stroke-width="11.338583" transform="scale(.0248071)"/></svg>

<?xml version="1.0" encoding="UTF-8"?>
<svg xmlns="http://www.w3.org/2000/svg" xmlns:xlink="http://www.w3.org/1999/xlink" width="48pt" height="48pt" viewBox="0 0 48 48" version="1.1">
<defs>
<linearGradient id="linear0" gradientUnits="userSpaceOnUse" x1="254" y1="233.5" x2="254" y2="254.666672" gradientTransform="matrix(0.093759,0,0,0.093759,-0.00000572259,20.158178)">
<stop offset="0" style="stop-color:rgb(0%,0%,0%);stop-opacity:0.27451;"/>
<stop offset="1" style="stop-color:rgb(0%,0%,0%);stop-opacity:0;"/>
</linearGradient>
<radialGradient id="radial0" gradientUnits="userSpaceOnUse" cx="450.908936" cy="189.579361" fx="450.908936" fy="189.579361" r="21.166656" gradientTransform="matrix(0.000000261256,-0.117199,-0.210958,-0.000000152308,79.684395,95.392999)">
<stop offset="0" style="stop-color:rgb(0%,0%,0%);stop-opacity:0.313726;"/>
<stop offset="0.222222" style="stop-color:rgb(0%,0%,0%);stop-opacity:0.27451;"/>
<stop offset="1" style="stop-color:rgb(0%,0%,0%);stop-opacity:0;"/>
</radialGradient>
<radialGradient id="radial1" gradientUnits="userSpaceOnUse" cx="450.908936" cy="189.579361" fx="450.908936" fy="189.579361" r="21.166656" gradientTransform="matrix(-0.000000261256,0.117199,0.210958,0.000000152308,-31.80678,-11.291218)">
<stop offset="0" style="stop-color:rgb(0%,0%,0%);stop-opacity:0.313726;"/>
<stop offset="0.222222" style="stop-color:rgb(0%,0%,0%);stop-opacity:0.27451;"/>
<stop offset="1" style="stop-color:rgb(0%,0%,0%);stop-opacity:0;"/>
</radialGradient>
<radialGradient id="radial2" gradientUnits="userSpaceOnUse" cx="450.908936" cy="189.579361" fx="450.908936" fy="189.579361" r="21.166656" gradientTransform="matrix(-0.000000261256,-0.117199,0.210958,-0.000000152308,-31.80678,95.392999)">
<stop offset="0" style="stop-color:rgb(0%,0%,0%);stop-opacity:0.313726;"/>
<stop offset="0.222222" style="stop-color:rgb(0%,0%,0%);stop-opacity:0.27451;"/>
<stop offset="1" style="stop-color:rgb(0%,0%,0%);stop-opacity:0;"/>
</radialGradient>
<radialGradient id="radial3" gradientUnits="userSpaceOnUse" cx="450.908936" cy="189.579361" fx="450.908936" fy="189.579361" r="21.166656" gradientTransform="matrix(0.000000261256,0.117199,-0.210958,0.000000152308,79.684393,-11.291219)">
<stop offset="0" style="stop-color:rgb(0%,0%,0%);stop-opacity:0.313726;"/>
<stop offset="0.222222" style="stop-color:rgb(0%,0%,0%);stop-opacity:0.27451;"/>
<stop offset="1" style="stop-color:rgb(0%,0%,0%);stop-opacity:0;"/>
</radialGradient>
<linearGradient id="linear1" gradientUnits="userSpaceOnUse" x1="254" y1="233.5" x2="254" y2="-168.666672" gradientTransform="matrix(0.093759,0,0,0.093759,0,20.158175)">
<stop offset="0" style="stop-color:rgb(100%,43.921569%,26.274511%);stop-opacity:1;"/>
<stop offset="1" style="stop-color:rgb(100%,54.11765%,39.607844%);stop-opacity:1;"/>
</linearGradient>
<linearGradient id="linear2" gradientUnits="userSpaceOnUse" x1="1040" y1="1695.118164" x2="1040" y2="175.118134" gradientTransform="matrix(0.0248071,0,0,0.0248071,0,0.00000000000000282)">
<stop offset="0" style="stop-color:rgb(74.117649%,74.117649%,74.117649%);stop-opacity:1;"/>
<stop offset="1" style="stop-color:rgb(87.843138%,87.843138%,87.843138%);stop-opacity:1;"/>
</linearGradient>
</defs>
<g id="surface1">
<path style=" stroke:none;fill-rule:nonzero;fill:url(#linear0);" d="M 7.691406 42.050781 L 40.1875 42.050781 L 40.1875 44.035156 L 7.691406 44.035156 Z M 7.691406 42.050781 "/>
<path style=" stroke:none;fill-rule:nonzero;fill:url(#radial0);" d="M 40.1875 42.050781 L 44.15625 42.050781 L 44.15625 40.066406 L 40.1875 40.066406 Z M 40.1875 42.050781 "/>
<path style=" stroke:none;fill-rule:nonzero;fill:url(#radial1);" d="M 7.691406 42.050781 L 3.722656 42.050781 L 3.722656 44.035156 L 7.691406 44.035156 Z M 7.691406 42.050781 "/>
<path style=" stroke:none;fill-rule:nonzero;fill:url(#radial2);" d="M 7.691406 42.050781 L 3.722656 42.050781 L 3.722656 40.066406 L 7.691406 40.066406 Z M 7.691406 42.050781 "/>
<path style=" stroke:none;fill-rule:nonzero;fill:url(#radial3);" d="M 40.1875 42.050781 L 44.15625 42.050781 L 44.15625 44.035156 L 40.1875 44.035156 Z M 40.1875 42.050781 "/>
<path style=" stroke:none;fill-rule:nonzero;fill:url(#linear1);" d="M 5.457031 4.34375 L 42.171875 4.34375 C 42.992188 4.34375 43.660156 5.011719 43.660156 5.832031 L 43.660156 40.5625 C 43.660156 41.382812 42.992188 42.050781 42.171875 42.050781 L 5.457031 42.050781 C 4.636719 42.050781 3.96875 41.382812 3.96875 40.5625 L 3.96875 5.832031 C 3.96875 5.011719 4.636719 4.34375 5.457031 4.34375 Z M 5.457031 4.34375 "/>
<path style=" stroke:none;fill-rule:nonzero;fill:rgb(100%,100%,100%);fill-opacity:0.392157;" d="M 5.457031 4.34375 C 4.632812 4.34375 3.96875 5.007812 3.96875 5.832031 L 3.96875 6.082031 C 3.96875 5.257812 4.632812 4.59375 5.457031 4.59375 L 42.171875 4.59375 C 42.996094 4.59375 43.660156 5.257812 43.660156 6.082031 L 43.660156 5.832031 C 43.660156 5.007812 42.996094 4.34375 42.171875 4.34375 Z M 5.457031 4.34375 "/>
<path style=" stroke:none;fill-rule:nonzero;fill:rgb(1.176471%,1.176471%,1.176471%);fill-opacity:0.235294;" d="M 5.457031 42.050781 C 4.632812 42.050781 3.96875 41.386719 3.96875 40.5625 L 3.96875 40.3125 C 3.96875 41.136719 4.632812 41.800781 5.457031 41.800781 L 42.171875 41.800781 C 42.996094 41.800781 43.660156 41.136719 43.660156 40.3125 L 43.660156 40.5625 C 43.660156 41.386719 42.996094 42.050781 42.171875 42.050781 Z M 5.457031 42.050781 "/>
<path style=" stroke:none;fill-rule:nonzero;fill:rgb(12.941177%,12.941177%,12.941177%);fill-opacity:1;" d="M 5.457031 4.203125 C 4.558594 4.203125 3.828125 4.933594 3.828125 5.832031 L 3.828125 40.5625 C 3.828125 41.460938 4.558594 42.191406 5.457031 42.191406 L 42.171875 42.191406 C 43.070312 42.191406 43.800781 41.460938 43.800781 40.5625 L 43.800781 5.832031 C 43.800781 4.933594 43.070312 4.203125 42.171875 4.203125 Z M 5.457031 4.484375 L 42.171875 4.484375 C 42.921875 4.484375 43.519531 5.082031 43.519531 5.832031 L 43.519531 40.5625 C 43.519531 41.3125 42.921875 41.910156 42.171875 41.910156 L 5.457031 41.910156 C 4.707031 41.910156 4.109375 41.3125 4.109375 40.5625 L 4.109375 5.832031 C 4.109375 5.082031 4.707031 4.484375 5.457031 4.484375 Z M 5.457031 4.484375 "/>
<path style=" stroke:none;fill-rule:nonzero;fill:url(#linear2);" d="M 7.9375 10.296875 C 7.386719 10.296875 6.945312 10.742188 6.945312 11.289062 L 6.945312 13.273438 C 6.945312 13.824219 7.386719 14.265625 7.9375 14.265625 C 21.132812 14.265625 31.753906 24.886719 31.753906 38.082031 C 31.753906 38.632812 32.195312 39.074219 32.746094 39.074219 L 34.730469 39.074219 C 35.28125 39.074219 35.722656 38.632812 35.722656 38.082031 C 35.722656 22.691406 23.332031 10.296875 7.9375 10.296875 Z M 7.9375 18.234375 C 7.386719 18.234375 6.945312 18.679688 6.945312 19.226562 L 6.945312 21.214844 C 6.945312 21.761719 7.386719 22.207031 7.9375 22.207031 C 16.734375 22.207031 23.816406 29.285156 23.816406 38.082031 C 23.816406 38.632812 24.257812 39.074219 24.808594 39.074219 L 26.792969 39.074219 C 27.339844 39.074219 27.785156 38.632812 27.785156 38.082031 C 27.785156 27.085938 18.933594 18.234375 7.9375 18.234375 Z M 12.402344 28.160156 C 9.378906 28.160156 6.945312 30.59375 6.945312 33.617188 C 6.945312 36.640625 9.378906 39.074219 12.402344 39.074219 C 15.425781 39.074219 17.859375 36.640625 17.859375 33.617188 C 17.859375 30.59375 15.425781 28.160156 12.402344 28.160156 Z M 12.402344 28.160156 "/>
<path style=" stroke:none;fill-rule:nonzero;fill:rgb(100%,100%,100%);fill-opacity:1;" d="M 7.9375 10.296875 C 7.386719 10.296875 6.945312 10.742188 6.945312 11.289062 L 6.945312 12.035156 C 6.945312 11.484375 7.386719 11.042969 7.9375 11.042969 C 23.121094 11.042969 35.386719 23.101562 35.714844 38.203125 C 35.71875 38.164062 35.722656 38.121094 35.722656 38.082031 C 35.722656 22.691406 23.332031 10.296875 7.9375 10.296875 Z M 7.9375 18.234375 C 7.386719 18.234375 6.945312 18.679688 6.945312 19.226562 L 6.945312 19.972656 C 6.945312 19.421875 7.386719 18.980469 7.9375 18.980469 C 18.730469 18.980469 27.457031 27.507812 27.773438 38.21875 C 27.78125 38.171875 27.785156 38.128906 27.785156 38.082031 C 27.785156 27.085938 18.933594 18.234375 7.9375 18.234375 Z M 12.402344 28.160156 C 9.378906 28.160156 6.945312 30.59375 6.945312 33.617188 C 6.945312 33.742188 6.949219 33.867188 6.957031 33.988281 C 7.148438 31.140625 9.503906 28.902344 12.402344 28.902344 C 15.300781 28.902344 17.660156 31.140625 17.847656 33.988281 C 17.855469 33.867188 17.859375 33.742188 17.859375 33.617188 C 17.859375 30.59375 15.425781 28.160156 12.402344 28.160156 Z M 12.402344 28.160156 "/>
<path style=" stroke:none;fill-rule:nonzero;fill:rgb(0%,0%,0%);fill-opacity:0.235294;" d="M 6.945312 13.273438 L 6.945312 14.265625 C 6.945312 14.816406 7.386719 15.257812 7.9375 15.257812 C 21.132812 15.257812 31.753906 25.878906 31.753906 39.074219 C 31.753906 39.625 32.195312 40.066406 32.746094 40.066406 L 34.730469 40.066406 C 35.28125 40.066406 35.722656 39.625 35.722656 39.074219 C 35.722656 38.796875 35.71875 38.515625 35.710938 38.238281 C 35.632812 38.714844 35.226562 39.074219 34.730469 39.074219 L 32.746094 39.074219 C 32.195312 39.074219 31.753906 38.632812 31.753906 38.082031 C 31.753906 24.886719 21.132812 14.265625 7.9375 14.265625 C 7.386719 14.265625 6.945312 13.824219 6.945312 13.273438 Z M 6.945312 21.214844 L 6.945312 22.207031 C 6.945312 22.753906 7.386719 23.199219 7.9375 23.199219 C 16.734375 23.199219 23.816406 30.277344 23.816406 39.074219 C 23.816406 39.625 24.257812 40.066406 24.808594 40.066406 L 26.792969 40.066406 C 27.339844 40.066406 27.785156 39.625 27.785156 39.074219 C 27.785156 38.800781 27.777344 38.53125 27.765625 38.261719 C 27.683594 38.726562 27.28125 39.074219 26.792969 39.074219 L 24.808594 39.074219 C 24.257812 39.074219 23.816406 38.632812 23.816406 38.082031 C 23.816406 29.285156 16.734375 22.207031 7.9375 22.207031 C 7.386719 22.207031 6.945312 21.761719 6.945312 21.214844 Z M 6.96875 34.113281 C 6.953125 34.277344 6.945312 34.441406 6.945312 34.609375 C 6.945312 37.632812 9.378906 40.066406 12.402344 40.066406 C 15.425781 40.066406 17.859375 37.632812 17.859375 34.609375 C 17.859375 34.441406 17.851562 34.277344 17.839844 34.113281 C 17.589844 36.902344 15.257812 39.074219 12.402344 39.074219 C 9.546875 39.074219 7.21875 36.902344 6.96875 34.113281 Z M 6.96875 34.113281 "/>
<path style="fill:none;stroke-width:11.338583;stroke-linecap:round;stroke-linejoin:round;stroke:rgb(12.941177%,12.941177%,12.941177%);stroke-opacity:1;stroke-miterlimit:4;" d="M 319.969461 415.078494 C 297.766856 415.078494 279.973279 433.029537 279.973279 455.074677 L 279.973279 535.067042 C 279.973279 557.269647 297.766856 575.063225 319.969461 575.063225 C 851.887198 575.063225 1280.03531 1003.211337 1280.03531 1535.129074 C 1280.03531 1557.331679 1297.828888 1575.125256 1320.031493 1575.125256 L 1400.023858 1575.125256 C 1422.226464 1575.125256 1440.020041 1557.331679 1440.020041 1535.129074 C 1440.020041 914.715847 940.540154 415.078494 319.969461 415.078494 Z M 319.969461 735.047955 C 297.766856 735.047955 279.973279 752.998998 279.973279 775.044138 L 279.973279 855.193969 C 279.973279 877.239109 297.766856 895.190151 319.969461 895.190151 C 674.581285 895.190151 960.065849 1180.51725 960.065849 1535.129074 C 960.065849 1557.331679 977.859426 1575.125256 1000.062032 1575.125256 L 1080.054397 1575.125256 C 1102.099537 1575.125256 1120.05058 1557.331679 1120.05058 1535.129074 C 1120.05058 1091.864294 763.234242 735.047955 319.969461 735.047955 Z M 499.952283 1135.167247 C 378.074152 1135.167247 279.973279 1233.26812 279.973279 1355.146252 C 279.973279 1477.024383 378.074152 1575.125256 499.952283 1575.125256 C 621.830415 1575.125256 719.931288 1477.024383 719.931288 1355.146252 C 719.931288 1233.26812 621.830415 1135.167247 499.952283 1135.167247 Z M 499.952283 1135.167247 " transform="matrix(0.0248071,0,0,0.0248071,0,0)"/>
</g>
</svg>
